!!!OTL: 682. Erinnerung an schoene Stunden.
!!!ODT: 1848
!!!ARE: Europa, Mitteleuropa, Deutschland, Baden, Schoenau
!!!SCT: E0682
!!!TXL: @@DE
!!!YEM: Copyright 1995, estate of Helmut Schaffrath.
**kern	**text
*ICvox	*
*M4/4	*
*met(c)	*
*k[f#]	*
*G:	*
!LO:TX:a:t=Etwas bewegt.	!
!LO:TX:a:t=Aus Schönau (Baden). 1848.	!
{8d	Ihr
8d	Ge-
=1	=1
4.g	-dan-
8d	-ken
4b	hal-
4g	-tet
=2	=2
2.dd}	ein!
{8g	ihr
8g	vermehrt
=3	=3
4.b	.
8g	nur
8bL	mei-
8aJ	.
8gL	-ne
8f#J	.
=4	=4
2g	Pein.
4r}	.
{8a	Trauernd
8b	.
=5	=5
4cc	denk
4cc	ich
8ccL	an
8eeJ	.
8ddL	die
8ccJ	.
=6	=6
8ccL	Stun-
8bJ	.
4b	-den,
4r}	.
{8a	die
8b/	ſchon
=7	=7
4cc	läng-
4cc	-ſtens
8ccL	ſind
8eeJ	.
8ddL	ver-
8ccJ	.
=8	=8
8ccL	-ſchwun-
8bJ	.
4b	-den.
4r}	.
{4d	Ge-
=9	=9
4g	-nug,
8gL	daß
8dJ	ich
4b	mich
8bL	drein
8gJ	er-
=10	=10
2.dd}	-gieb,
{8g	und
8g	dich
=11	=11
4.b/	doch
8g	be-
8bL	-ſtän-
8aJ	.
8gL	-dig
8f#J	.
=12	=12
2g	lieb.
4r}	.
==	==
!!!AGN: Liebes - Lied, Leid, Klage
!!!ONB: ESAC (Essen Associative Code) Database: ERK2
!!!AMT: simple quadruple
!!!AIN: vox
!!!EED: Helmut Schaffrath
!!!EEV: 1.0
!!!GTL: Liebeslieder [Neuere (aus dem 18. bis 19. Jahrh.) - Liebesleid] 678-740
!!!URL-scan: https://rosdok.uni-rostock.de/mcrviewer/recordIdentifier/rosdok_ppn745177662/iview2/phys_0484.iview2?x=155.48968525771852&y=1826.5681355737615&scale=0.7029437510502773&rotation=0&layout=singlePageLayout
!!!ENC: Anna Maria Matuszewska
!!!EEV: 2024/12/16
*-	*-
